/* XPM */
static char *out[] = {
/* columns rows colors chars-per-pixel */
"733 300 16 1 ",
"  c black",
". c white",
"X c #888888",
"o c #004398",
"O c #D1975A",
"+ c #9A4F03",
"@ c #5095CC",
"# c #F3D39C",
"$ c #000152",
"% c #530100",
"& c #97CEF0",
"* c #CBF3FF",
"= c #444341",
"- c #F5EED4",
"; c #BBBCBD",
": c #E4BA7E",
/* pixels */
"                                                                                                                                                                                                                                                                                                                                                                                                                                                                                                                                                                                                                                                                                                                                                             ",
"                                                                                                                                                                                                                                                                                                                                                                                                                                                                                                                                                                                                                                                                                                                                                             ",
"                                                                                                                                                                                                                                                                                                                                                                                                                                                                                                                                                                                                                                                                                                                                                             ",
"                                                                                                                                                                                                                                                                                                                                                                                                                                                                                                                                                                                                                                                                                                                                                             ",
"                                                                                                                                                                                                                                                                                                                                                                                                                                                                                                                                                                                                                                                                                                                                                             ",
"                                                                                                                                                                                                                                                                                                                                                                                                                                                                                                                                                                                                                                                                                                                                                             ",
"                                                                                                                                                                                                                                                                                                                                                                                                                                                                                                                                                                                                                                                                                                                                                             ",
"                                                                                                                                                                                                                                                                                                                                                                                                                                                                                                                                                                                                                                                                                                                                                             ",
"                                                                                                                                                                                                                                                                                                                                                                                                                                                                                                                                                                                                                                                                                                                                                             ",
"                                                                                                                                                                                                                                                                                                                                                                                                                                                                                                                                                                                                                                                                                                                                                             ",
"                                                                                                                                                                                                                                                                                                                                                                                                                                                                                                                                                                                                                                                                                                                                                             ",
"                                                                                                                                                                                                                                                                                                                                                                                                                                                                                                                                                                                                                                                                                                                                                             ",
"                                                                                                                                                                                                                                                                                                                                                                                                                                                                                                                                                                                                                                                                                                                                                             ",
"                                                                                                                                                                                                                                                                                                                                                                                                                                                                                                                                                                                                                                                                                                                                                             ",
"                                                                                                                                                                                                                                                                                                                                                                                                                                                                                                                                                                                                                                                                                                                                                             ",
"                                                                                                                                                                                                                                                                                                                                                                                                                                                                                                                                                                                                                                                                                                                                                             ",
"                                                                                                                                                                                                                                                                                                                                                                                                                                                                                                                                                                                                                                                                                                                                                             ",
"                                                                                                                                                                                                                                                                                                                                                                                                                                                                                                                                                                                                                                                                                                                                                             ",
"                                                                                                                                                                                                                                                                                                                                                                                                                                                                                                                                                                                                                                                                                                                                                             ",
"                                                                                                                                                                                                                                                                                                                                                                                                                                                                                                                                                                                                                                                                                                                                                             ",
"                                                                                                                                                                                                                                                                                                                                                                                                                                                                                                                                                                                                                                                                                                                                                             ",
"                                                                                                                                                                                                                                                                                                                                                                                                                                                                                                                                                                                                                                                                                                                                                             ",
"                                                                                                                                                                                                                                                                                                                                                                                                                                                                                                                                                                                                                                                                                                                                                             ",
"                                                                                                                                                                                                                                                                                                                                                                                                                                                                                                                                                                                                                                                                                                                                                             ",
"                                                                                                                                                                                                                                                                                                                                                                                                                                                                                                                                                                                                                                                                                                                                                             ",
"                                                                                                                                                                                                                                                                                                                                                                                                                                                                                                                                                                                                                                                                                                                                                             ",
"                                                                                                                                                                                                                                                                                                                                                                                                                                                                                                                                                                                                                                                                                                                                                             ",
"                                                                                                                                                                                                                                                                                                                                                                                                                                                                                                                                                                                                                                                                                                                                                             ",
"                                                                                                                                                                                                                                                                                                                                                                                                                                                                                                                                                                                                                                                                                                                                                             ",
"                                                                                                                                                                                                                                                                                                                                                                                                                                                                                                                                                                                                                                                                                                                                                             ",
"                                                                                                                                                                                                                                                                                                                                                                                                                                                                                                                                                                                                                                                                                                                                                             ",
"                                                                                                                                                                                                                                                                                                                                                                                                                                                                                                                                                                                                                                                                                                                                                             ",
"                                                                                                                                                                                                                                                                                                                                                                                                                                                                                                                                                                                                                                                                                                                                                             ",
"                                                                                                                                                                                                                                                                                                                                                                                                                                                                                                                                                                                                                                                                                                                                                             ",
"                                                                                                                                                                                                                                                                                                                                                                                                                                                                                                                                                                                                                                                                                                                                                             ",
"                                                                                                                                                                                                                                                                                                                                                                                                                                                                                                                                                                                                                                                                                                                                                             ",
"                                                                                                                                                                                                                                                                                                                                                                                                                                                                                                                                                                                                                                                                                                                                                             ",
"                                                                                                                                                                                                                                                                                                                                                                                                                                                                                                                                                                                                                                                                                                                                                             ",
"                                                                                                                                                                                                                                                                                                                                                                                                                                                                                                                                                                                                                                                                                                                                                             ",
"                                                                                                                                                                                                                                                                                                                                                                                                                                                                                                                                                                                                                                                                                                                                                             ",
"                                                                                                                                                                                                                                                                                                                                                                                                                                                                                                                                                                                                                                                                                                                                                             ",
"                                                                                                                                                                                                                                                                                                                                                                                                                                                                                                                                                                                                                                                                                                                                                             ",
"                                                                                                                                                                                                                                                                                                                                                                                                                                                                                                                                                                                                                                                                                                                                                             ",
"                                                                                                                                                                                                                                                                                                                                                                                                                                                                                                                                                                                                                                                                                                                                                             ",
"                                                                                                                                                                                                                                                                                                                                                                                                                                                                                                                                                                                                                                                                                                                                                             ",
"                                                                                                                                                                                                                                                                                                                                                                                                                                                                                                                                                                                                                                                                                                                                                             ",
"                                                                                                                                                                                                                                                                                                                                                                                                                                                                                                                                                                                                                                                                                                                                                             ",
"                                                                                                                                                                                                                                                                                                                                                                                                                                                                                                                                                                                                                                                                                                                                                             ",
"                                                                                                                                                                                                                                                                                                                                                                                                                                                                                                                                                                                                                                                                                                                                                             ",
"                                                                                                                                                                                                                                                                                                                                                                                                                                                                                                                                                                                                                                                                                                                                                             ",
"                                                                                                                                                                                                                                                                                                                                                                                                                                                                                                                                                                                                                                                                                                                                                             ",
"                                                                                                                                                                                                                                                                                                                                                                                                                                                                                                                                                                                                                                                                                                                                                             ",
"                                                                                                                                                                                                                                                                                                                                                                                                                                                                                                                                                                                                                                                                                                                                                             ",
"                                                                                                                                                                                                                                                                                                                                                                                                                                                                                                                                                                                                                                                                                                                                                             ",
"                                                                                                                                                                                                                                                                                                                                                                                                                                                                                                                                                                                                                                                                                                                                                             ",
"                                                                                                                                                                                                                                                                                                                                                                                                                                                                                                                                                                                                                                                                                                                                                             ",
"                                                                                                                                                                                                                                                                                                                                                                                                                                                                                                                                                                                                                                                                                                                                                             ",
"                                                                                                                                                                                                                                                                                                                                                                                                                                                                                                                                                                                                                                                                                                                                                             ",
"                                                                                                                                                                                                                                                                                                                                                                                                                                                                                                                                                                                                                                                                                                                                                             ",
"                                                                                                                                                                                                                                                                                                                                                                                                                                                                                                                                                                                                                                                                                                                                                             ",
"                                                                                                                                                                                                                                                                                                                                                                                                                                                                                                                                                                                                                                                                                                                                                             ",
"                                                                                                                                                                                                                                                                                                                                                                                                                                                                                                                                                                                                                                                                                                                                                             ",
"                                                                                                                                                                                                                                                                                                                                                                                                                                                                                                                                                                                                                                                                                                                                                             ",
"                                                                                                                                                                                                                                                                                                                                                                                                                                                                                                                                                                                                                                                                                                                                                             ",
"                                                                                                                                                                                                                                                                                                                                                                                                                                                                                                                                                                                                                                                                                                                                                             ",
"                                                                                                                                                                                                                                                                                                                                                                                                                                                                                                                                                                                                                                                                                                                                                             ",
"                                                                                                                                                                                                                                                                                                                                                                                                                                                                                                                                                                                                                                                                                                                                                             ",
"                                                                                                                                                                                                                                                                                                                                                                                                                                                                                                                                                                                                                                                                                                                                                             ",
"                                                                                                                                                                                                                                                                                                                                                                                                                                                                                                                                                                                                                                                                                                                                                             ",
"                                                                                                                                                                                                                                                                                                                                                                                                                                                                                                                                                                                                                                                                                                                                                             ",
"                                                                                                                                                                                                                                                                                                                                                                                                                                                                                                                                                                                                                                                                                                                                                             ",
"                                                                                                                                                                                                                                                                                                                                                                                                                                                                                                                                                                                                                                                                                                                                                             ",
"                                                                                                                                                                                                                                                                                                                                                                                                                                                                                                                                                                                                                                                                                                                                                             ",
"                                                                                                                                                                                                                                                                                                                                                                                                                                                                                                                                                                                                                                                                                                                                                             ",
"                                                                                                                                                                                                                                                                                                                                                                                                                                                                                                                                                                                                                                                                                                                                                             ",
"                                                                                                                                                                                                                                                                                                                                                                                                                                                                                                                                                                                                                                                                                                                                                             ",
"                                                                                                   $XXXXXXXXXXXXXXXXXXXXXXXXXXXXXXXXXXXXXXXXXXXXXXXXXXXXXXXXXXXXXXXXXXXXXXXXXXXXXXXXXXXXXXXXXXXXXXXXXXXXXXXXXXXXXXXXXXXXXXXX%                    $XXXXXXXXXXXXXXXXXXXXXXXXXXXXXXXXXXXXXXXXXXXXXXXXXXXXXXXXXXXXXXXXXXXXXXXXXXXXXXXXXXXXXXXXXXXXXX+             $XXXXXXXXXXXXXXXXXXXXXXXXXXXXXXXXXXXXXXXXXXXXXXX=                                                      $XXXXXXXXXXXXXXXXXXXXXXXXXXXXXXXXXXXXXXXXXXXXXXXXXX         $XXXXXXXXXXXXXXXXXXXXXXXXXXXXXXXXXXXXXXXXXXXXXXXXXXXXXXXXXXXXXXXXXXXXXXXXXXXXXXXXXXXXXXXXXXXXXXXXXXXXXXXXXXXXXXXXXXXXXXXX%                                                                                                  ",
"                                                                                                  $*........................................................................................................................+                    o..............................................................................................#             &...............................................-%                                                     @.................................................:        $*........................................................................................................................+                                                                                                  ",
"                                                                                                  $*........................................................................................................................+                    o..............................................................................................#             $*...............................................:                                                    $*................................................-%        $*........................................................................................................................+                                                                                                  ",
"                                                                                                  $*........................................................................................................................+                    o..............................................................................................#              @................................................+                                                   &.................................................O         $*........................................................................................................................+                                                                                                  ",
"                                                                                                  $*........................................................................................................................+                    o..............................................................................................#               &...............................................#                                                  o.................................................#          $*........................................................................................................................+                                                                                                  ",
"                                                                                                  $*........................................................................................................................+                    o..............................................................................................#               o................................................+                                                 &.................................................%          $*........................................................................................................................+                                                                                                  ",
"                                                                                                  $*........................................................................................................................+                    o..............................................................................................#                @...............................................-%                                               o.................................................O           $*........................................................................................................................+                                                                                                  ",
"                                                                                                  $*........................................................................................................................+                    o..............................................................................................#                $*...............................................O                                              $*................................................-%           $*........................................................................................................................+                                                                                                  ",
"                                                                                                  $*........................................................................................................................+                    o..............................................................................................#                 o...............................................-%                                             @.................................................+            $*........................................................................................................................+                                                                                                  ",
"                                                                                                  $*........................................................................................................................+                    o..............................................................................................#                  @...............................................:                                            $*................................................:             $*........................................................................................................................+                                                                                                  ",
"                                                                                                  $*........................................................................................................................+                    o..............................................................................................#                  $*...............................................+                                           @................................................-%             $*........................................................................................................................+                                                                                                  ",
"                                                                                                  $*........................................................................................................................+                    o..............................................................................................#                   o...............................................#                                          $*................................................O              $*........................................................................................................................+                                                                                                  ",
"                                                                                                  $*........................................................................................................................+                    o..............................................................................................#                    &...............................................O                                         &................................................#               $*........................................................................................................................+                                                                                                  ",
"                                                                                                  $*........................................................................................................................+                    o..............................................................................................#                    $*..............................................-%                                       o.................................................+               $*........................................................................................................................+                                                                                                  ",
"                                                                                                  $*........................................................................................................................+                    o..............................................................................................#                     @...............................................:                                       &................................................O                $*........................................................................................................................+                                                                                                  ",
"                                                                                                  $*........................................................................................................................+                    o..............................................................................................#                      &...............................................+                                     @................................................-%                $*........................................................................................................................+                                                                                                  ",
"                                                                                                  $*........................................................................................................................+                    o..............................................................................................#                      $*..............................................#                                    $*................................................+                 $*........................................................................................................................+                                                                                                  ",
"                                                                                                  $*........................................................................................................................+                    o..............................................................................................#                       @...............................................+                                   @................................................:                  $*........................................................................................................................+                                                                                                  ",
"                                                                                                  $*........................................................................................................................+                    o..............................................................................................#                       $&..............................................-%                                 $*...............................................-%                  $*........................................................................................................................+                                                                                                  ",
"                                                                                                  $*........................................................................................................................+                    o..............................................................................................#                        o...............................................O                                 @................................................O                   $*........................................................................................................................+                                                                                                  ",
"                                                                                                  $*........................................................................................................................+                    o..............................................................................................#                         @..............................................-%                               o................................................#                    $*........................................................................................................................+                                                                                                  ",
"                                                                                                  $*........................................................................................................................+                    o..............................................................................................#                         $*..............................................:                               &................................................+                    $*........................................................................................................................+                                                                                                  ",
"                                                                                                  $*........................................................................................................................+                    o..............................................................................................#                          o...............................................+                             o................................................O                     $*........................................................................................................................+                                                                                                  ",
"                                                                                                  $*........................................................................................................................+                    o..............................................................................................#                           &..............................................#                            $&...............................................-%                     $*........................................................................................................................+                                                                                                  ",
"                                                                                                  $*........................................................................................................................+                    o..............................................................................................#                           $*..............................................O                           @................................................+                      $*........................................................................................................................+                                                                                                  ",
"                                                                                                  $*........................................................................................................................+                    o..............................................................................................#                            @..............................................-%                         $*...............................................#                       $*........................................................................................................................+                                                                                                  ",
"                                                                                                  $*........................................................................................................................+                    o..............................................................................................#                             &..............................................:                         @...............................................-%                       $*........................................................................................................................+                                                                                                  ",
"                                                                                                  $*........................................................................................................................+                    o..............................................................................................#                             $*..............................................+                       $*...............................................O                        $*........................................................................................................................+                                                                                                  ",
"                                                                                                  $*........................................................................................................................+                    o..............................................................................................#                              @..............................................#                       &...............................................#                         $*........................................................................................................................+                                                                                                  ",
"                                                                                                  $*........................................................................................................................+                    o..............................................................................................#                               &..............................................+                     o................................................+                         $*........................................................................................................................+                                                                                                  ",
"                                                                                                  $*........................................................................................................................+                    o..............................................................................................#                               o..............................................-%                    &...............................................:                          $*........................................................................................................................+                                                                                                  ",
"                                                                                                  $*........................................................................................................................+                    o..............................................................................................#                                @..............................................O                   o...............................................-%                          $*........................................................................................................................+                                                                                                  ",
"                                                                                                  $*........................................................................................................................+                    o..............................................................................................#                                $*..............................................%                 $*...............................................+                           $*........................................................................................................................+                                                                                                  ",
"                                                                                                  $*........................................................................................................................+                    o..............................................................................................#                                 o..............................................#                 @...............................................#                            $*........................................................................................................................+                                                                                                  ",
"                                                                                                  $*........................................................................................................................+                    o..............................................................................................#                                  &..............................................+               $*..............................................-%                            $*........................................................................................................................+                                                                                                  ",
"                                                                                                  $*........................................................................................................................+                    o...........................................---------------------------------------------------:                                  $*.............................................#%              @...............................................O                             $*........................................................................................................................+                                                                                                  ",
"                                                                                                  $XXXXXXXXXXXXXXXXXXXXXXXXXXXXXXXXXXXXXX;...........................................#XXXXXXXXXXXXXXXXXXXXXXXXXXXXXXXXXXXXXX%                    o...........................................O                                                                                      o..............................................O             o...............................................#%                             $XXXXXXXXXXXXXXXXXXXXXXXXXXXXXXXXXXXXXX;...........................................#XXXXXXXXXXXXXXXXXXXXXXXXXXXXXXXXXXXXXX%                                                                                                  ",
"                                                                                                                                         o...........................................O                                                           o...........................................O                                                                                       &.............................................-%            &...............................................+                                                                     o...........................................O                                                                                                                                         ",
"                                                                                                                                         o...........................................O                                                           o...........................................O                                                                                       $*.............................................:           o...............................................:                                                                      o...........................................O                                                                                                                                         ",
"                                                                                                                                         o...........................................O                                                           o...........................................O                                                                                        @..............................................+         $&..............................................-%                                                                      o...........................................O                                                                                                                                         ",
"                                                                                                                                         o...........................................O                                                           o...........................................O                                                                                         &.............................................#         @...............................................O                                                                       o...........................................O                                                                                                                                         ",
"                                                                                                                                         o...........................................O                                                           o...........................................O                                                                                         o..............................................O       $*..............................................#                                                                        o...........................................O                                                                                                                                         ",
"                                                                                                                                         o...........................................O                                                           o...........................................O                                                                                          @.............................................-%      @...............................................+                                                                        o...........................................O                                                                                                                                         ",
"                                                                                                                                         o...........................................O                                                           o...........................................O                                                                                          $*.............................................O     $*..............................................O                                                                         o...........................................O                                                                                                                                         ",
"                                                                                                                                         o...........................................O                                                           o...........................................O                                                                                           o..............................................%    &..............................................-%                                                                         o...........................................O                                                                                                                                         ",
"                                                                                                                                         o...........................................O                                                           o...........................................O                                                                                            @.............................................#   o...............................................+                                                                          o...........................................O                                                                                                                                         ",
"                                                                                                                                         o...........................................O                                                           o...........................................O                                                                                            $*.............................................+  &..............................................:                                                                           o...........................................O                                                                                                                                         ",
"                                                                                                                                         o...........................................O                                                           o...........................................O                                                                                             o.............................................-%o..............................................-%                                                                           o...........................................O                                                                                                                                         ",
"                                                                                                                                         o...........................................O                                                           o...........................................O                                                                                              &.............................................O*..............................................O                                                                            o...........................................O                                                                                                                                         ",
"                                                                                                                                         o...........................................O                                                           o...........................................O                                                                                              $*...........................................................................................#                                                                             o...........................................O                                                                                                                                         ",
"                                                                                                                                         o...........................................O                                                           o...........................................O                                                                                               @...........................................................................................+                                                                             o...........................................O                                                                                                                                         ",
"                                                                                                                                         o...........................................O                                                           o...........................................O                                                                                                &.........................................................................................O                                                                              o...........................................O                                                                                                                                         ",
"                                                                                                                                         o...........................................O                                                           o...........................................O                                                                                                $*.......................................................................................-%                                                                              o...........................................O                                                                                                                                         ",
"                                                                                                                                         o...........................................O                                                           o...........................................O                                                                                                 @.......................................................................................+                                                                               o...........................................O                                                                                                                                         ",
"                                                                                                                                         o...........................................O                                                           o...........................................O                                                                                                 $&.....................................................................................:                                                                                o...........................................O                                                                                                                                         ",
"                                                                                                                                         o...........................................O                                                           o...........................................O                                                                                                  o....................................................................................-%                                                                                o...........................................O                                                                                                                                         ",
"                                                                                                                                         o...........................................O                                                           o...........................................O                                                                                                   @...................................................................................O                                                                                 o...........................................O                                                                                                                                         ",
"                                                                                                                                         o...........................................O                                                           o...........................................O                                                                                                   $*.................................................................................#                                                                                  o...........................................O                                                                                                                                         ",
"                                                                                                                                         o...........................................O                                                           o...........................................O                                                                                                    o.................................................................................+                                                                                  o...........................................O                                                                                                                                         ",
"                                                                                                                                         o...........................................O                                                           o...........................................O                                                                                                     &...............................................................................:                                                                                   o...........................................O                                                                                                                                         ",
"                                                                                                                                         o...........................................O                                                           o..........................................................................................-%                                                     $*.............................................................................-%                                                                                   o...........................................O                                                                                                                                         ",
"                                                                                                                                         o...........................................O                                                           o..........................................................................................-%                                                      @.............................................................................+                                                                                    o...........................................O                                                                                                                                         ",
"                                                                                                                                         o...........................................O                                                           o..........................................................................................-%                                                       &...........................................................................#                                                                                     o...........................................O                                                                                                                                         ",
"                                                                                                                                         o...........................................O                                                           o..........................................................................................-%                                                       $*.........................................................................-%                                                                                     o...........................................O                                                                                                                                         ",
"                                                                                                                                         o...........................................O                                                           o..........................................................................................-%                                                        @.........................................................................O                                                                                      o...........................................O                                                                                                                                         ",
"                                                                                                                                         o...........................................O                                                           o..........................................................................................-%                                                         &.......................................................................#                                                                                       o...........................................O                                                                                                                                         ",
"                                                                                                                                         o...........................................O                                                           o..........................................................................................-%                                                         o.......................................................................+                                                                                       o...........................................O                                                                                                                                         ",
"                                                                                                                                         o...........................................O                                                           o..........................................................................................-%                                                          @.....................................................................:                                                                                        o...........................................O                                                                                                                                         ",
"                                                                                                                                         o...........................................O                                                           o..........................................................................................-%                                                          $*...................................................................-%                                                                                        o...........................................O                                                                                                                                         ",
"                                                                                                                                         o...........................................O                                                           o..........................................................................................-%                                                           o...................................................................+                                                                                         o...........................................O                                                                                                                                         ",
"                                                                                                                                         o...........................................O                                                           o..........................................................................................-%                                                            &.................................................................#                                                                                          o...........................................O                                                                                                                                         ",
"                                                                                                                                         o...........................................O                                                           o..........................................................................................-%                                                            $*................................................................%                                                                                          o...........................................O                                                                                                                                         ",
"                                                                                                                                         o...........................................O                                                           o..........................................................................................-%                                                             @...............................................................O                                                                                           o...........................................O                                                                                                                                         ",
"                                                                                                                                         o...........................................O                                                           o..........................................................................................-%                                                              &.............................................................#%                                                                                           o...........................................O                                                                                                                                         ",
"                                                                                                                                         o...........................................O                                                           o..........................................................................................-%                                                              $*............................................................+                                                                                            o...........................................O                                                                                                                                         ",
"                                                                                                                                         o...........................................O                                                           o..........................................................................................-%                                                               @...........................................................:                                                                                             o...........................................O                                                                                                                                         ",
"                                                                                                                                         o...........................................O                                                           o..........................................................................................-%                                                                &.........................................................-%                                                                                             o...........................................O                                                                                                                                         ",
"                                                                                                                                         o...........................................O                                                           o..........................................................................................-%                                                                o.........................................................O                                                                                              o...........................................O                                                                                                                                         ",
"                                                                                                                                         o...........................................O                                                           o..........................................................................................-%                                                                 &.......................................................#                                                                                               o...........................................O                                                                                                                                         ",
"                                                                                                                                         o...........................................O                                                           o..........................................................................................-%                                                                o........................................................+                                                                                               o...........................................O                                                                                                                                         ",
"                                                                                                                                         o...........................................O                                                           o..........................................................................................-%                                                                &.......................................................O                                                                                                o...........................................O                                                                                                                                         ",
"                                                                                                                                         o...........................................O                                                           o..........................................................................................-%                                                               @.......................................................-%                                                                                                o...........................................O                                                                                                                                         ",
"                                                                                                                                         o...........................................O                                                           o..........................................................................................-%                                                              $*.......................................................-%                                                                                                o...........................................O                                                                                                                                         ",
"                                                                                                                                         o...........................................O                                                           o..........................................................................................-%                                                              &.........................................................#                                                                                                o...........................................O                                                                                                                                         ",
"                                                                                                                                         o...........................................O                                                           o..........................................................................................-%                                                             @...........................................................O                                                                                               o...........................................O                                                                                                                                         ",
"                                                                                                                                         o...........................................O                                                           o..........................................................................................-%                                                            $*............................................................+                                                                                              o...........................................O                                                                                                                                         ",
"                                                                                                                                         o...........................................O                                                           o..........................................................................................-%                                                            &.............................................................-%                                                                                             o...........................................O                                                                                                                                         ",
"                                                                                                                                         o...........................................O                                                           o..........................................................................................-%                                                           o...............................................................:                                                                                             o...........................................O                                                                                                                                         ",
"                                                                                                                                         o...........................................O                                                           o..........................................................................................-%                                                          $*................................................................+                                                                                            o...........................................O                                                                                                                                         ",
"                                                                                                                                         o...........................................O                                                           o..........................................................................................-%                                                          &.................................................................-%                                                                                           o...........................................O                                                                                                                                         ",
"                                                                                                                                         o...........................................O                                                           o..........................................................................................-%                                                         o...................................................................:                                                                                           o...........................................O                                                                                                                                         ",
"                                                                                                                                         o...........................................O                                                           o..........................................................................................-%                                                        $*....................................................................+                                                                                          o...........................................O                                                                                                                                         ",
"                                                                                                                                         o...........................................O                                                           o..........................................................................................-%                                                        @.....................................................................-%                                                                                         o...........................................O                                                                                                                                         ",
"                                                                                                                                         o...........................................O                                                           o..........................................................................................-%                                                       o.......................................................................#                                                                                         o...........................................O                                                                                                                                         ",
"                                                                                                                                         o...........................................O                                                           o..........................................................................................-%                                                      $*........................................................................O                                                                                        o...........................................O                                                                                                                                         ",
"                                                                                                                                         o...........................................O                                                           o...........................................O$==============================================                                                       @..........................................................................+                                                                                       o...........................................O                                                                                                                                         ",
"                                                                                                                                         o...........................................O                                                           o...........................................O                                                                                                     o...........................................................................#                                                                                       o...........................................O                                                                                                                                         ",
"                                                                                                                                         o...........................................O                                                           o...........................................O                                                                                                     &............................................................................O                                                                                      o...........................................O                                                                                                                                         ",
"                                                                                                                                         o...........................................O                                                           o...........................................O                                                                                                    @..............................................................................+                                                                                     o...........................................O                                                                                                                                         ",
"                                                                                                                                         o...........................................O                                                           o...........................................O                                                                                                   $*..............................................................................-%                                                                                    o...........................................O                                                                                                                                         ",
"                                                                                                                                         o...........................................O                                                           o...........................................O                                                                                                   &................................................................................:                                                                                    o...........................................O                                                                                                                                         ",
"                                                                                                                                         o...........................................O                                                           o...........................................O                                                                                                  @..................................................................................+                                                                                   o...........................................O                                                                                                                                         ",
"                                                                                                                                         o...........................................O                                                           o...........................................O                                                                                                 $*..................................................................................-%                                                                                  o...........................................O                                                                                                                                         ",
"                                                                                                                                         o...........................................O                                                           o...........................................O                                                                                                 &....................................................................................:                                                                                  o...........................................O                                                                                                                                         ",
"                                                                                                                                         o...........................................O                                                           o...........................................O                                                                                                @......................................................................................O                                                                                 o...........................................O                                                                                                                                         ",
"                                                                                                                                         o...........................................O                                                           o...........................................O                                                                                               $*......................................................................................-%                                                                                o...........................................O                                                                                                                                         ",
"                                                                                                                                         o...........................................O                                                           o...........................................O                                                                                               &........................................................................................#                                                                                o...........................................O                                                                                                                                         ",
"                                                                                                                                         o...........................................O                                                           o...........................................O                                                                                              o..........................................................................................O                                                                               o...........................................O                                                                                                                                         ",
"                                                                                                                                         o...........................................O                                                           o...........................................O                                                                                             $*...........................................................................................+                                                                              o...........................................O                                                                                                                                         ",
"                                                                                                                                         o...........................................O                                                           o...........................................O                                                                                             &............................................................................................#%                                                                             o...........................................O                                                                                                                                         ",
"                                                                                                                                         o...........................................O                                                           o...........................................O                                                                                            o..............................................................................................O                                                                             o...........................................O                                                                                                                                         ",
"                                                                                                                                         o...........................................O                                                           o...........................................O                                                                                           $*...............................................X*..............................................+                                                                            o...........................................O                                                                                                                                         ",
"                                                                                                                                         o...........................................O                                                           o...........................................O                                                                                           @...............................................# @..............................................-%                                                                           o...........................................O                                                                                                                                         ",
"                                                                                                                                         o...........................................O                                                           o...........................................O                                                                                          o...............................................-% $*..............................................:                                                                           o...........................................O                                                                                                                                         ",
"                                                                                                                                         o...........................................O                                                           o...........................................O                                                                                         $&...............................................O   o...............................................+                                                                          o...........................................O                                                                                                                                         ",
"                                                                                                                                         o...........................................O                                                           o...........................................O                                                                                         @...............................................#     &..............................................-%                                                                         o...........................................O                                                                                                                                         ",
"                                                                                                                                         o...........................................O                                                           o...........................................O                                                                                        o................................................+     $*..............................................#                                                                         o...........................................O                                                                                                                                         ",
"                                                                                                                                         o...........................................O                                                           o...........................................O                                                                                        &...............................................:       @...............................................O                                                                        o...........................................O                                                                                                                                         ",
"                                                                                                                                         o...........................................O                                                           o...........................................O                                                                                       @...............................................-%        &...............................................%                                                                       o...........................................O                                                                                                                                         ",
"                                                                                                                                         o...........................................O                                                           o...........................................O                                                                                      $*...............................................O         o...............................................#                                                                       o...........................................O                                                                                                                                         ",
"                                                                                                                                         o...........................................O                                                           o...........................................O                                                                                      &...............................................#           @...............................................O                                                                      o...........................................O                                                                                                                                         ",
"                                                                                                                                         o...........................................O                                                           o...........................................O                                                                                     @................................................+           $*...............................................+                                                                     o...........................................O                                                                                                                                         ",
"                                                                                                                                         o...........................................O                                                           o...........................................O                                                                                    $*...............................................O             o...............................................-%                                                                    o...........................................O                                                                                                                                         ",
"                                                                                                                                         o...........................................O                                                           o...........................................O                                                                                    &...............................................-%              &...............................................:                                                                    o...........................................O                                                                                                                                         ",
"                                                                                                                                         o...........................................O                                                           o...........................................-;;;;;;;;;;;;;;;;;;;;;;;;;;;;;;;;;;;;;;;;;;;;;;;;;;X                                o................................................+               $*...............................................+                                                                   o...........................................O                                                                                                                                         ",
"                                                                                                                                         o...........................................O                                                           o..............................................................................................#                               $*...............................................:                 @...............................................-%                                                                  o...........................................O                                                                                                                                         ",
"                                                                                                                                         o...........................................O                                                           o..............................................................................................#                               &...............................................-%                  &...............................................:                                                                  o...........................................O                                                                                                                                         ",
"                                                                                                                                         o...........................................O                                                           o..............................................................................................#                              o................................................O                   o................................................O                                                                 o...........................................O                                                                                                                                         ",
"                                                                                                                                         o...........................................O                                                           o..............................................................................................#                             $*...............................................#                     @...............................................-%                                                                o...........................................O                                                                                                                                         ",
"                                                                                                                                         o...........................................O                                                           o..............................................................................................#                             @................................................+                     $*...............................................#                                                                o...........................................O                                                                                                                                         ",
"                                                                                                                                         o...........................................O                                                           o..............................................................................................#                            o................................................:                       o................................................O                                                               o...........................................O                                                                                                                                         ",
"                                                                                                                                         o...........................................O                                                           o..............................................................................................#                           $*...............................................-%                        &................................................+                                                              o...........................................O                                                                                                                                         ",
"                                                                                                                                         o...........................................O                                                           o..............................................................................................#                           @................................................+                         $*...............................................#                                                              o...........................................O                                                                                                                                         ",
"                                                                                                                                         o...........................................O                                                           o..............................................................................................#                          o................................................#                           @................................................O                                                             o...........................................O                                                                                                                                         ",
"                                                                                                                                         o...........................................O                                                           o..............................................................................................#                          &................................................%                            &................................................+                                                            o...........................................O                                                                                                                                         ",
"                                                                                                                                         o...........................................O                                                           o..............................................................................................#                         @................................................O                             o................................................-%                                                           o...........................................O                                                                                                                                         ",
"                                                                                                                                         o...........................................O                                                           o..............................................................................................#                        $*...............................................-%                              @................................................:                                                           o...........................................O                                                                                                                                         ",
"                                                                                                                                         o...........................................O                                                           o..............................................................................................#                        &................................................+                               $*................................................+                                                          o...........................................O                                                                                                                                         ",
"                                                                                                                                         o...........................................O                                                           o..............................................................................................#                       @................................................:                                 o................................................-%                                                         o...........................................O                                                                                                                                         ",
"                                                                                                                                         o...........................................O                                                           o..............................................................................................#                      $*...............................................-%                                  &................................................#                                                         o...........................................O                                                                                                                                         ",
"                                                                                                                                         o...........................................O                                                           o..............................................................................................#                      &................................................O                                   $*................................................O                                                        o...........................................O                                                                                                                                         ",
"                                                                                                                                         o...........................................O                                                           o..............................................................................................#                     @................................................#                                     @................................................-%                                                       o...........................................O                                                                                                                                         ",
"                                                                                                                                         o...........................................O                                                           o..............................................................................................#                    $*................................................+                                      &................................................#                                                       o...........................................O                                                                                                                                         ",
"                                                                                                                                         o...........................................O                                                           o..............................................................................................#                    &................................................O                                       o.................................................O                                                      o...........................................O                                                                                                                                         ",
"                                                                                                                                         o...........................................O                                                           o..............................................................................................#                   o................................................-%                                        @.................................................+                                                     o...........................................O                                                                                                                                         ",
"                                                                                                                                         o...........................................O                                                           o..............................................................................................#                  $*................................................+                                         $*................................................#%                                                    o...........................................O                                                                                                                                         ",
"                                                                                                                                         o...........................................O                                                           o..............................................................................................#                  @................................................#                                           o.................................................:                                                    o...........................................O                                                                                                                                         ",
"                                                                                                                                         o...........................................O                                                           o..............................................................................................#                 o................................................-%                                            &.................................................+                                                   o...........................................O                                                                                                                                         ",
"                                                                                                                                         o...........................................O                                                           o..............................................................................................#                $*................................................O                                             $*................................................-%                                                  o...........................................O                                                                                                                                         ",
"                                                                                                                                         o...........................................O                                                           o..............................................................................................#                @................................................#%                                              @.................................................:                                                  o...........................................O                                                                                                                                         ",
"                                                                                                                                         o...........................................O                                                           o..............................................................................................#               o.................................................+                                                &.................................................+                                                 o...........................................O                                                                                                                                         ",
"                                                                                                                                         o...........................................O                                                           o..............................................................................................#              $&................................................:                                                 o.................................................-%                                                o...........................................O                                                                                                                                         ",
"                                                                                                                                         o...........................................O                                                           o..............................................................................................#              @................................................-%                                                  @.................................................#                                                o...........................................O                                                                                                                                         ",
"                                                                                                                                         o...........................................O                                                           o..............................................................................................#             o.................................................O                                                   $*.................................................O                                               o...........................................O                                                                                                                                         ",
"                                                                                                                                         o...........................................O                                                           o..............................................................................................#             &................................................#                                                     o..................................................%                                              o...........................................O                                                                                                                                         ",
"                                                                                                                                         o...........................................O                                                           o..............................................................................................#            @.................................................+                                                      &.................................................#                                              o...........................................O                                                                                                                                         ",
"                                                                                                                                         o...........................................O                                                           o..............................................................................................#           $*................................................O                                                       $*.................................................O                                             o...........................................O                                                                                                                                         ",
"                                                                                                                                         o...........................................O                                                           o..............................................................................................#           &................................................-%                                                        @..................................................+                                            o...........................................O                                                                                                                                         ",
"                                                                                                                                         o...........................................O                                                           o..............................................................................................#          @.................................................+                                                         $&.................................................-%                                           o...........................................O                                                                                                                                         ",
"                                                                                                                                         o...........................................O                                                           o..............................................................................................#          &................................................:                                                           o..................................................O                                           o...........................................O                                                                                                                                         ",
"                                                                                                                                                                                                                                                                                                                                                                                                                                                                                                                                                                                                                                                                                                                                                             ",
"                                                                                                                                                                                                                                                                                                                                                                                                                                                                                                                                                                                                                                                                                                                                                             ",
"                                                                                                                                                                                                                                                                                                                                                                                                                                                                                                                                                                                                                                                                                                                                                             ",
"                                                                                                                                                                                                                                                                                                                                                                                                                                                                                                                                                                                                                                                                                                                                                             ",
"                                                                                                                                                                                                                                                                                                                                                                                                                                                                                                                                                                                                                                                                                                                                                             ",
"                                                                                                                                                                                                                                                                                                                                                                                                                                                                                                                                                                                                                                                                                                                                                             ",
"                                                                                                                                                                                                                                                                                                                                                                                                                                                                                                                                                                                                                                                                                                                                                             ",
"                                                                                                                                                                                                                                                                                                                                                                                                                                                                                                                                                                                                                                                                                                                                                             ",
"                                                                                                                                                                                                                                                                                                                                                                                                                                                                                                                                                                                                                                                                                                                                                             ",
"                                                                                                                                                                                                                                                                                                                                                                                                                                                                                                                                                                                                                                                                                                                                                             ",
"                                                                                                                                                                                                                                                                                                                                                                                                                                                                                                                                                                                                                                                                                                                                                             ",
"                                                                                                                                                                                                                                                                                                                                                                                                                                                                                                                                                                                                                                                                                                                                                             ",
"                                                                                                                                                                                                                                                                                                                                                                                                                                                                                                                                                                                                                                                                                                                                                             ",
"                                                                                                                                                                                                                                                                                                                                                                                                                                                                                                                                                                                                                                                                                                                                                             ",
"                                                                                                                                                                                                                                                                                                                                                                                                                                                                                                                                                                                                                                                                                                                                                             ",
"                                                                                                                                                                                                                                                                                                                                                                                                                                                                                                                                                                                                                                                                                                                                                             ",
"                                                                                                                                                                                                                                                                                                                                                                                                                                                                                                                                                                                                                                                                                                                                                             ",
"                                                                                                                                                                                                                                                                                                                                                                                                                                                                                                                                                                                                                                                                                                                                                             ",
"                                                                                                                                                                                                                                                                                                                                                                                                                                                                                                                                                                                                                                                                                                                                                             ",
"                                                                                                                                                                                                                                                                                                                                                                                                                                                                                                                                                                                                                                                                                                                                                             ",
"                                                                                                                                                                                                                                                                                                                                                                                                                                                                                                                                                                                                                                                                                                                                                             ",
"                                                                                                                                                                                                                                                                                                                                                                                                                                                                                                                                                                                                                                                                                                                                                             ",
"                                                                                                                                                                                                                                                                                                                                                                                                                                                                                                                                                                                                                                                                                                                                                             ",
"                                                                                                                                                                                                                                                                                                                                                                                                                                                                                                                                                                                                                                                                                                                                                             ",
"                                                                                                                                                                                                                                                                                                                                                                                                                                                                                                                                                                                                                                                                                                                                                             ",
"                                                                                                                                                                                                                                                                                                                                                                                                                                                                                                                                                                                                                                                                                                                                                             ",
"                                                                                                                                                                                                                                                                                                                                                                                                                                                                                                                                                                                                                                                                                                                                                             ",
"                                                                                                                                                                                                                                                                                                                                                                                                                                                                                                                                                                                                                                                                                                                                                             ",
"                                                                                                                                                                                                                                                                                                                                                                                                                                                                                                                                                                                                                                                                                                                                                             ",
"                                                                                                                                                                                                                                                                                                                                                                                                                                                                                                                                                                                                                                                                                                                                                             ",
"                                                                                                                                                                                                                                                                                                                                                                                                                                                                                                                                                                                                                                                                                                                                                             ",
"                                                                                                                                                                                                                                                                                                                                                                                                                                                                                                                                                                                                                                                                                                                                                             ",
"                                                                                                                                                                                                                                                                                                                                                                                                                                                                                                                                                                                                                                                                                                                                                             ",
"                                                                                                                                                                                                                                                                                                                                                                                                                                                                                                                                                                                                                                                                                                                                                             ",
"                                                                                                                                                                                                                                                                                                                                                                                                                                                                                                                                                                                                                                                                                                                                                             ",
"                                                                                                                                                                                                                                                                                                                                                                                                                                                                                                                                                                                                                                                                                                                                                             ",
"                                                                                                                                                                                                                                                                                                                                                                                                                                                                                                                                                                                                                                                                                                                                                             ",
"                                                                                                                                                                                                                                                                                                                                                                                                                                                                                                                                                                                                                                                                                                                                                             ",
"                                                                                                                                                                                                                                                                                                                                                                                                                                                                                                                                                                                                                                                                                                                                                             ",
"                                                                                                                                                                                                                                                                                                                                                                                                                                                                                                                                                                                                                                                                                                                                                             ",
"                                                                                                                                                                                                                                                                                                                                                                                                                                                                                                                                                                                                                                                                                                                                                             ",
"                                                                                                                                                                                                                                                                                                                                                                                                                                                                                                                                                                                                                                                                                                                                                             ",
"                                                                                                                                                                                                                                                                                                                                                                                                                                                                                                                                                                                                                                                                                                                                                             ",
"                                                                                                                                                                                                                                                                                                                                                                                                                                                                                                                                                                                                                                                                                                                                                             ",
"                                                                                                                                                                                                                                                                                                                                                                                                                                                                                                                                                                                                                                                                                                                                                             ",
"                                                                                                                                                                                                                                                                                                                                                                                                                                                                                                                                                                                                                                                                                                                                                             ",
"                                                                                                                                                                                                                                                                                                                                                                                                                                                                                                                                                                                                                                                                                                                                                             ",
"                                                                                                                                                                                                                                                                                                                                                                                                                                                                                                                                                                                                                                                                                                                                                             ",
"                                                                                                                                                                                                                                                                                                                                                                                                                                                                                                                                                                                                                                                                                                                                                             ",
"                                                                                                                                                                                                                                                                                                                                                                                                                                                                                                                                                                                                                                                                                                                                                             ",
"                                                                                                                                                                                                                                                                                                                                                                                                                                                                                                                                                                                                                                                                                                                                                             ",
"                                                                                                                                                                                                                                                                                                                                                                                                                                                                                                                                                                                                                                                                                                                                                             ",
"                                                                                                                                                                                                                                                                                                                                                                                                                                                                                                                                                                                                                                                                                                                                                             ",
"                                                                                                                                                                                                                                                                                                                                                                                                                                                                                                                                                                                                                                                                                                                                                             ",
"                                                                                                                                                                                                                                                                                                                                                                                                                                                                                                                                                                                                                                                                                                                                                             ",
"                                                                                                                                                                                                                                                                                                                                                                                                                                                                                                                                                                                                                                                                                                                                                             ",
"                                                                                                                                                                                                                                                                                                                                                                                                                                                                                                                                                                                                                                                                                                                                                             ",
"                                                                                                                                                                                                                                                                                                                                                                                                                                                                                                                                                                                                                                                                                                                                                             ",
"                                                                                                                                                                                                                                                                                                                                                                                                                                                                                                                                                                                                                                                                                                                                                             ",
"                                                                                                                                                                                                                                                                                                                                                                                                                                                                                                                                                                                                                                                                                                                                                             ",
"                                                                                                                                                                                                                                                                                                                                                                                                                                                                                                                                                                                                                                                                                                                                                             ",
"                                                                                                                                                                                                                                                                                                                                                                                                                                                                                                                                                                                                                                                                                                                                                             ",
"                                                                                                                                                                                                                                                                                                                                                                                                                                                                                                                                                                                                                                                                                                                                                             ",
"                                                                                                                                                                                                                                                                                                                                                                                                                                                                                                                                                                                                                                                                                                                                                             "
};
